packages/icons/src/car-slash.svg

<svg width="24" height="24" viewBox="0 0 24 24" fill="none" xmlns="http://www.w3.org/2000/svg">
<path fill-rule="evenodd" clip-rule="evenodd" d="M3.5152 3.10001L21.8992 21.485L20.4852 22.899L16.5852 18.999L7.9922 19V20H5.9922V19C5.99206 18.4953 6.18276 18.0091 6.52606 17.6391C6.86936 17.2691 7.33987 17.0426 7.8432 17.005L7.9932 17H14.5872L8.4552 10.87C7.40495 10.7978 6.35713 10.6938 5.3132 10.558L4.7712 11.299C4.32185 11.9141 4.05748 12.6448 4.0092 13.405L4.0002 13.66V20H2.0002V13.659C2.00009 12.4864 2.34358 11.3395 2.9882 10.36L3.0862 10.22L2.5262 10.12L1.8042 9.98001L2.1962 8.02001C2.9242 8.16501 3.6562 8.29401 4.3882 8.40701L4.4232 8.33201L4.4622 8.21301L4.7382 7.15301L2.1002 4.51501L3.5152 3.10001ZM16.1802 4.00001C16.8211 4.00005 17.4451 4.20531 17.9608 4.58573C18.4766 4.96615 18.8569 5.50173 19.0462 6.11401L19.0942 6.28601L19.6122 8.40701C20.1037 8.331 20.5941 8.24765 21.0832 8.15701L21.8032 8.01901L22.1952 9.98101L21.5352 10.108L20.8752 10.227L20.9322 10.303C21.5724 11.228 21.9397 12.3143 21.9922 13.438L21.9992 13.719V18.758L19.9992 16.758V13.719C19.9991 12.9226 19.7613 12.1444 19.3162 11.484L19.1772 11.29L18.6242 10.566C17.1503 10.7554 15.6689 10.8815 14.1842 10.944L12.2302 8.99001C14.0302 8.98101 15.8302 8.87601 17.6202 8.67301L17.1522 6.76301C17.1038 6.5642 16.9956 6.38503 16.8422 6.24967C16.6887 6.1143 16.4975 6.02925 16.2942 6.00601L16.1812 6.00001H9.2402L7.2992 4.05601C7.4312 4.03001 7.5662 4.01301 7.7022 4.00601L7.8802 4.00001H16.1822H16.1802ZM9.0002 13V15H6.0002V13H9.0002ZM18.0002 13V14.758L16.2422 13H18.0002Z" fill="black"/>
</svg>

<svg xmlns="http://www.w3.org/2000/svg" width="24" height="24" fill="none" viewBox="0 0 24 24">
  <path fill="#000" fill-rule="evenodd" d="M3.515 3.1 21.9 21.485l-1.414 1.414-3.9-3.9L7.992 19v1h-2v-1a2 2 0 0 1 1.851-1.995l.15-.005h6.594l-6.132-6.13a52.007 52.007 0 0 1-3.142-.312l-.542.741a4 4 0 0 0-.762 2.106L4 13.66V20H2v-6.341a6 6 0 0 1 .988-3.299l.098-.14-.56-.1-.722-.14.392-1.96c.728.145 1.46.274 2.192.387l.035-.075.04-.119.275-1.06L2.1 4.515 3.515 3.1ZM16.18 4a3 3 0 0 1 2.866 2.114l.048.172.518 2.121c.492-.076.982-.16 1.471-.25l.72-.138.392 1.962-.66.127-.66.119.057.076a6 6 0 0 1 1.06 3.135l.007.281v5.039l-2-2v-3.039a4 4 0 0 0-.683-2.235l-.139-.194-.553-.724c-1.474.19-2.955.316-4.44.378L12.23 8.99c1.8-.009 3.6-.114 5.39-.317l-.468-1.91a1 1 0 0 0-.858-.757L16.181 6h-6.94L7.298 4.056c.132-.026.267-.043.403-.05L7.88 4h8.302-.002ZM9 13v2H6v-2h3Zm9 0v1.758L16.242 13H18Z" clip-rule="evenodd"/>
</svg>
